svg/regular/bx-border-left.svg

<svg xmlns="http://www.w3.org/2000/svg" width="24" height="24"><path d="M11 3h2v2h-2zm4 0h2v2h-2zM7 3h2v2H7zm12 0h2v2h-2zm0 8h2v2h-2zm0 4h2v2h-2zm0-8h2v2h-2zm0 12h2v2h-2zm-4 0h2v2h-2zm-8 0h2v2H7zm4 0h2v2h-2zm0-4h2v2h-2zm0-8h2v2h-2zm4 4h2v2h-2zm-8 0h2v2H7zm4 0h2v2h-2zM3 5v16h2V3H3z"/></svg>

<svg xmlns="http://www.w3.org/2000/svg" width="24" height="24" viewBox="0 0 24 24"><path d="M11 3H13V5H11zM15 3H17V5H15zM7 3H9V5H7zM19 3H21V5H19zM19 11H21V13H19zM19 15H21V17H19zM19 7H21V9H19zM19 19H21V21H19zM15 19H17V21H15zM7 19H9V21H7zM11 19H13V21H11zM11 15H13V17H11zM11 7H13V9H11zM15 11H17V13H15zM7 11H9V13H7zM11 11H13V13H11zM3 5L3 7 3 9 3 11 3 13 3 15 3 17 3 19 3 21 5 21 5 19 5 17 5 15 5 13 5 11 5 9 5 7 5 5 5 3 3 3z"/></svg>
